src/logo.svg

<svg height="325" viewBox="0 0 324.28089308 325" width="324.280893" xmlns="http://www.w3.org/2000/svg"><g fill="#fff"><path d="m15.854 151.691a92.985 92.985 0 0 0 9.986 12.824c3.419 3.678 6.765 6.878 10.033 9.471 6.457 5.292 12.168 8.587 16.13 10.64 1.957 1.088 3.539 1.736 4.574 2.244l1.582.74.004.002 1.616.669c1.074.421 2.627 1.155 4.747 1.863 4.186 1.539 10.48 3.533 18.755 4.729 4.125.664 8.754.974 13.79 1.016 5.038.054 10.5-.319 16.256-1.273 11.488-1.888 24.259-6.126 36.484-13.84 6.086-3.865 12.053-8.532 17.511-14.106 5.473-5.556 10.393-12.023 14.618-19.164.555-.874 1.032-1.813 1.535-2.737.495-.927 1.009-1.856 1.491-2.791l1.339-2.814.673-1.414c.247-.552.415-1.001.627-1.507l1.214-2.966c.396-.996.724-2.021 1.091-3.035.76-2.02 1.329-4.114 1.956-6.203 1.124-4.212 2.1-8.523 2.659-12.943.356-2.199.498-4.435.71-6.672.081-1.12.102-2.247.155-3.375l.069-1.694-.008-1.698c-.007-9.07-1.336-18.278-3.912-27.241-1.292-4.482-2.958-8.877-4.871-13.185-1.947-4.295-4.247-8.446-6.779-12.467-2.562-4.006-5.466-7.806-8.579-11.438-3.136-3.617-6.592-6.96-10.223-10.107-3.652-3.127-7.584-5.924-11.649-8.506-4.076-2.533-8.464-4.767-12.765-6.688-4.502-1.888-9-3.503-13.664-4.753-4.66-1.196-9.382-2.147-14.152-2.669-4.77-.493-9.56-.726-14.329-.537-4.764.214-9.504.697-14.16 1.566-4.647.902-9.227 2.06-13.669 3.572-4.426 1.549-8.75 3.322-12.883 5.429-8.257 4.218-15.836 9.506-22.418 15.65l-1.241 1.141-1.185 1.194c-.784.8-1.59 1.576-2.35 2.392-1.484 1.666-3.015 3.277-4.374 5.022-2.837 3.392-5.313 7.013-7.618 10.674-1.096 1.867-2.234 3.691-3.195 5.619-.49.953-1.019 1.894-1.473 2.849l-1.327 2.863c-.221.485-.439.929-.662 1.447l-.586 1.466-1.168 2.916c-.356.98-.682 1.969-1.022 2.948-.332.982-.693 1.95-.957 2.947-2.36 7.887-3.762 15.83-4.126 23.561a100.052 100.052 0 0 0 1.425 22.284c2.541 14.134 7.991 26.362 14.315 36.085zm-14.598-58.305c.45-7.636 1.929-15.457 4.346-23.202.271-.979.639-1.929.977-2.893.347-.961.679-1.931 1.041-2.892l1.185-2.858.595-1.435c.193-.441.438-.938.654-1.405l1.345-2.855c.458-.948.975-1.849 1.461-2.781.945-1.869 2.081-3.663 3.168-5.492 2.289-3.585 4.744-7.13 7.552-10.445 1.345-1.706 2.86-3.279 4.326-4.906.751-.797 1.548-1.554 2.322-2.335l1.17-1.165 1.226-1.113c6.497-5.992 13.964-11.131 22.081-15.215 4.062-2.04 8.31-3.75 12.651-5.241 4.358-1.454 8.847-2.559 13.397-3.414 4.559-.823 9.196-1.265 13.852-1.447 4.66-.156 9.336.101 13.988.61 4.652.538 9.253 1.496 13.79 2.688 4.515 1.237 8.974 2.876 13.236 4.69 4.369 1.997 8.454 4.124 12.439 6.637 3.936 2.544 7.738 5.292 11.264 8.36 3.504 3.086 6.837 6.358 9.855 9.894 2.994 3.551 5.784 7.259 8.239 11.166 2.426 3.921 4.626 7.962 6.48 12.14 1.814 4.192 3.414 8.454 4.645 12.802 2.455 8.693 3.696 17.61 3.668 26.382l.014 1.643-.062 1.639c-.049 1.09-.064 2.181-.139 3.265-.201 2.165-.328 4.328-.667 6.457-.526 4.278-1.46 8.454-2.533 12.536-.602 2.024-1.144 4.055-1.876 6.014-.353.983-.665 1.978-1.047 2.943l-1.168 2.878-.571 1.397-.653 1.423-1.3 2.833-1.393 2.69c-.469.89-.906 1.789-1.437 2.649-4.002 6.985-8.692 13.339-13.942 18.821-5.26 5.469-10.909 10.221-16.785 14.133-11.768 7.844-24.228 12.33-35.529 14.464-11.338 2.193-21.55 1.902-29.751.796-8.234-1.085-14.523-2.992-18.71-4.472-2.122-.679-3.677-1.391-4.752-1.797l-1.618-.646-1.58-.739c-1.033-.507-2.623-1.158-4.565-2.24-3.941-2.042-9.641-5.33-16.073-10.604-6.425-5.238-13.639-12.503-19.829-22.302-6.206-9.733-11.495-21.947-13.835-35.987a98.967 98.967 0 0 1 -1.152-22.069z" transform="matrix(1.65906467 0 0 1.65906467 .001755 -.000978)"/><path d="m74.313 0-28.094 78h8.469l28.094-78zm-36.313 11.25-2.188 1.406-34 22-1.813 1.156v4.25l1.688 1.219 34 24 2.313 1.594v-9.781l-26.844-18.969 26.844-17.375zm52 0v9.5l26.844 17.375-26.844 18.969v9.781l2.313-1.594 34-24 1.688-1.219v-4.25l-1.813-1.156-34-22z" transform="matrix(.7812378 0 0 .7812378 112.000778 59)"/><path d="m86.13-8.99q2.03 1.89 2.03 4.21 0 2.03-1.67 3.69-1.67 1.67-3.84 1.67-1.88 0-3.92-1.74l-54.23-47.41v43.21q0 2.75-1.59 4.42-1.6 1.66-4.35 1.66-2.76 0-4.35-1.66-1.6-1.67-1.6-4.42v-91.5q0-2.75 1.6-4.42 1.59-1.67 4.35-1.67 2.75 0 4.35 1.67 1.59 1.67 1.59 4.42v41.62l51.77-45.97q1.59-1.59 3.77-1.59 2.17 0 3.77 1.66 1.6 1.67 1.6 3.7 0 2.18-1.89 4.06l-46.84 41.18zm60.32 10.15q-14.21 0-24.72-6.38-10.52-6.38-16.17-18.12-5.66-11.75-5.66-27.7 0-16.09 5.59-27.91 5.58-11.82 16.09-18.13 10.51-6.3 24.87-6.3 14.35 0 24.87 6.3 10.51 6.31 16.09 18.13 5.58 11.82 5.58 27.77 0 15.95-5.65 27.76-5.65 11.82-16.17 18.2-10.51 6.38-24.72 6.38zm0-10.15q16.24 0 25.3-10.95 9.06-10.94 9.06-31.24 0-20.3-8.99-31.18-8.99-10.87-25.37-10.87-16.24 0-25.3 10.94-9.07 10.95-9.07 31.11 0 20.15 9.07 31.17 9.06 11.02 25.3 11.02z" transform="translate(64.800002 255.27)"/></g></svg>

<svg xmlns="http://www.w3.org/2000/svg" viewBox="0 0 324.28089308079393 325" height="325" width="324.28089308079393" > 
  <g transform="matrix(1.6590646714457313,0,0,1.6590646714457313,0.001755385486488527,-0.0009777052644839254)" fill="#fff">
    <path d="M15.854 151.691a92.985 92.985 0 0 0 9.986 12.824c3.419 3.678 6.765 6.878 10.033 9.471 6.457 5.292 12.168 8.587 16.13 10.64 1.957 1.088 3.539 1.736 4.574 2.244l1.582.74.004.002 1.616.669c1.074.421 2.627 1.155 4.747 1.863 4.186 1.539 10.48 3.533 18.755 4.729 4.125.664 8.754.974 13.79 1.016 5.038.054 10.5-.319 16.256-1.273 11.488-1.888 24.259-6.126 36.484-13.84 6.086-3.865 12.053-8.532 17.511-14.106 5.473-5.556 10.393-12.023 14.618-19.164.555-.874 1.032-1.813 1.535-2.737.495-.927 1.009-1.856 1.491-2.791l1.339-2.814.673-1.414c.247-.552.415-1.001.627-1.507l1.214-2.966c.396-.996.724-2.021 1.091-3.035.76-2.02 1.329-4.114 1.956-6.203 1.124-4.212 2.1-8.523 2.659-12.943.356-2.199.498-4.435.71-6.672.081-1.12.102-2.247.155-3.375l.069-1.694-.008-1.698c-.007-9.07-1.336-18.278-3.912-27.241-1.292-4.482-2.958-8.877-4.871-13.185-1.947-4.295-4.247-8.446-6.779-12.467-2.562-4.006-5.466-7.806-8.579-11.438-3.136-3.617-6.592-6.96-10.223-10.107-3.652-3.127-7.584-5.924-11.649-8.506-4.076-2.533-8.464-4.767-12.765-6.688-4.502-1.888-9-3.503-13.664-4.753-4.66-1.196-9.382-2.147-14.152-2.669-4.77-.493-9.56-.726-14.329-.537-4.764.214-9.504.697-14.16 1.566-4.647.902-9.227 2.06-13.669 3.572-4.426 1.549-8.75 3.322-12.883 5.429-8.257 4.218-15.836 9.506-22.418 15.65l-1.241 1.141-1.185 1.194c-.784.8-1.59 1.576-2.35 2.392-1.484 1.666-3.015 3.277-4.374 5.022-2.837 3.392-5.313 7.013-7.618 10.674-1.096 1.867-2.234 3.691-3.195 5.619-.49.953-1.019 1.894-1.473 2.849l-1.327 2.863c-.221.485-.439.929-.662 1.447l-.586 1.466-1.168 2.916c-.356.98-.682 1.969-1.022 2.948-.332.982-.693 1.95-.957 2.947C1.88 77.648.478 85.591.114 93.322a100.052 100.052 0 0 0 1.425 22.284c2.541 14.134 7.991 26.362 14.315 36.085zM1.256 93.386c.45-7.636 1.929-15.457 4.346-23.202.271-.979.639-1.929.977-2.893.347-.961.679-1.931 1.041-2.892l1.185-2.858.595-1.435c.193-.441.438-.938.654-1.405l1.345-2.855c.458-.948.975-1.849 1.461-2.781.945-1.869 2.081-3.663 3.168-5.492 2.289-3.585 4.744-7.13 7.552-10.445 1.345-1.706 2.86-3.279 4.326-4.906.751-.797 1.548-1.554 2.322-2.335l1.17-1.165 1.226-1.113c6.497-5.992 13.964-11.131 22.081-15.215 4.062-2.04 8.31-3.75 12.651-5.241 4.358-1.454 8.847-2.559 13.397-3.414 4.559-.823 9.196-1.265 13.852-1.447 4.66-.156 9.336.101 13.988.61 4.652.538 9.253 1.496 13.79 2.688 4.515 1.237 8.974 2.876 13.236 4.69 4.369 1.997 8.454 4.124 12.439 6.637 3.936 2.544 7.738 5.292 11.264 8.36 3.504 3.086 6.837 6.358 9.855 9.894 2.994 3.551 5.784 7.259 8.239 11.166 2.426 3.921 4.626 7.962 6.48 12.14 1.814 4.192 3.414 8.454 4.645 12.802 2.455 8.693 3.696 17.61 3.668 26.382l.014 1.643-.062 1.639c-.049 1.09-.064 2.181-.139 3.265-.201 2.165-.328 4.328-.667 6.457-.526 4.278-1.46 8.454-2.533 12.536-.602 2.024-1.144 4.055-1.876 6.014-.353.983-.665 1.978-1.047 2.943l-1.168 2.878-.571 1.397-.653 1.423-1.3 2.833-1.393 2.69c-.469.89-.906 1.789-1.437 2.649-4.002 6.985-8.692 13.339-13.942 18.821-5.26 5.469-10.909 10.221-16.785 14.133-11.768 7.844-24.228 12.33-35.529 14.464-11.338 2.193-21.55 1.902-29.751.796-8.234-1.085-14.523-2.992-18.71-4.472-2.122-.679-3.677-1.391-4.752-1.797l-1.618-.646-1.58-.739c-1.033-.507-2.623-1.158-4.565-2.24-3.941-2.042-9.641-5.33-16.073-10.604-6.425-5.238-13.639-12.503-19.829-22.302-6.206-9.733-11.495-21.947-13.835-35.987a98.967 98.967 0 0 1-1.152-22.069z"></path>
  </g>
  <g transform="matrix(0.7812377998647949,0,0,0.7812377998647949,112.00077801472904,39.46905500338013)" fill="#fff">
    <path d="M74.313 0l-28.094 78h8.469l28.094-78h-8.469zm-36.313 11.25l-2.188 1.406-34 22-1.813 1.156v4.25l1.688 1.219 34 24 2.313 1.594v-9.781l-26.844-18.969 26.844-17.375v-9.5zm52 0v9.5l26.844 17.375-26.844 18.969v9.781l2.313-1.594 34-24 1.688-1.219v-4.25l-1.813-1.156-34-22-2.188-1.406z" transform="translate(0 25)"></path>
  </g>
  <g transform="translate(64.8000020980835, 255.27000045776367)"><path d="M86.13-8.99L86.13-8.99Q88.16-7.10 88.16-4.78L88.16-4.78L88.16-4.78Q88.16-2.75 86.49-1.09L86.49-1.09L86.49-1.09Q84.82 0.58 82.65 0.58L82.65 0.58L82.65 0.58Q80.77 0.58 78.73-1.16L78.73-1.16L24.50-48.57L24.50-5.36L24.50-5.36Q24.50-2.61 22.91-0.94L22.91-0.94L22.91-0.94Q21.31 0.72 18.56 0.72L18.56 0.72L18.56 0.72Q15.80 0.72 14.21-0.94L14.21-0.94L14.21-0.94Q12.61-2.61 12.61-5.36L12.61-5.36L12.61-96.86L12.61-96.86Q12.61-99.61 14.21-101.28L14.21-101.28L14.21-101.28Q15.80-102.95 18.56-102.95L18.56-102.95L18.56-102.95Q21.31-102.95 22.91-101.28L22.91-101.28L22.91-101.28Q24.50-99.61 24.50-96.86L24.50-96.86L24.50-55.24L76.27-101.21L76.27-101.21Q77.86-102.80 80.04-102.80L80.04-102.80L80.04-102.80Q82.21-102.80 83.81-101.14L83.81-101.14L83.81-101.14Q85.41-99.47 85.41-97.44L85.41-97.44L85.41-97.44Q85.41-95.26 83.52-93.38L83.52-93.38L36.68-52.20L86.13-8.99ZM146.45 1.16L146.45 1.16Q132.24 1.16 121.73-5.22L121.73-5.22L121.73-5.22Q111.21-11.60 105.56-23.34L105.56-23.34L105.56-23.34Q99.90-35.09 99.90-51.04L99.90-51.04L99.90-51.04Q99.90-67.13 105.49-78.95L105.49-78.95L105.49-78.95Q111.07-90.77 121.58-97.08L121.58-97.08L121.58-97.08Q132.09-103.38 146.45-103.38L146.45-103.38L146.45-103.38Q160.80-103.38 171.32-97.08L171.32-97.08L171.32-97.08Q181.83-90.77 187.41-78.95L187.41-78.95L187.41-78.95Q192.99-67.13 192.99-51.18L192.99-51.18L192.99-51.18Q192.99-35.23 187.34-23.42L187.34-23.42L187.34-23.42Q181.69-11.60 171.17-5.22L171.17-5.22L171.17-5.22Q160.66 1.16 146.45 1.16L146.45 1.16ZM146.45-8.99L146.45-8.99Q162.69-8.99 171.75-19.94L171.75-19.94L171.75-19.94Q180.81-30.88 180.81-51.18L180.81-51.18L180.81-51.18Q180.81-71.48 171.82-82.36L171.82-82.36L171.82-82.36Q162.83-93.23 146.45-93.23L146.45-93.23L146.45-93.23Q130.21-93.23 121.15-82.29L121.15-82.29L121.15-82.29Q112.08-71.34 112.08-51.18L112.08-51.18L112.08-51.18Q112.08-31.03 121.15-20.01L121.15-20.01L121.15-20.01Q130.21-8.99 146.45-8.99L146.45-8.99Z" fill="#fff"></path></g>
   
</svg>
